X:8
T:Tom Jones. WCl.08
M:6/8
L:1/8
Q:120
S:William Clarke MS,Lincoln,1770.
R:.Jig
O:Lincoln
A:England
Z:vmp.Barry Callaghan
K:D
“_No time sig. in ms”a3 g3|fdf ece|d2f ece|d2f ece|!
dcd ede|fef ^gf^g|a2d cdB|A3 A3:|!
|:D2F E2G|F2A EFG|F2d AB”_sic”^c|B3 B2F|!
GFG AGA|BAB cBc|d2G FGE|D3 D3:|

